packages/icons/src/SVG/xls.svg

<svg width="12" height="12" viewBox="0 0 12 12" fill="none" xmlns="http://www.w3.org/2000/svg">
<path fill-rule="evenodd" clip-rule="evenodd" d="M1 0V6H2V1H7V4H10V6H11V2L9 0H1ZM10 3V2.41421L8.58579 1H8V3H10Z" fill="#4C505B"/>
<path d="M11.6992 10.5585C11.6992 10.8548 11.6263 11.11 11.4805 11.3242C11.3369 11.5384 11.1296 11.7024 10.8584 11.8163C10.5895 11.9303 10.2682 11.9872 9.89453 11.9872C9.71224 11.9872 9.53792 11.977 9.37158 11.9565C9.20524 11.936 9.04801 11.9064 8.8999 11.8676C8.75407 11.8266 8.62077 11.7776 8.5 11.7206V10.9482C8.7028 11.037 8.92952 11.1179 9.18018 11.1909C9.43083 11.2615 9.68604 11.2968 9.9458 11.2968C10.1577 11.2968 10.3332 11.2695 10.4722 11.2148C10.6134 11.1578 10.7183 11.0781 10.7866 10.9755C10.855 10.8707 10.8892 10.7488 10.8892 10.6098C10.8892 10.4617 10.8493 10.3364 10.7695 10.2338C10.6898 10.1313 10.569 10.0379 10.4072 9.95355C10.2477 9.86696 10.0472 9.77468 9.80566 9.6767C9.6416 9.61062 9.48438 9.53542 9.33398 9.45111C9.18587 9.3668 9.05371 9.26768 8.9375 9.15375C8.82129 9.03981 8.729 8.90538 8.66064 8.75043C8.59456 8.5932 8.56152 8.40863 8.56152 8.19672C8.56152 7.91416 8.62874 7.67263 8.76318 7.47211C8.8999 7.27159 9.09131 7.11778 9.3374 7.01068C9.58577 6.90358 9.87516 6.85004 10.2056 6.85004C10.4676 6.85004 10.7137 6.87738 10.9438 6.93207C11.1763 6.98676 11.4041 7.06423 11.6274 7.16449L11.3677 7.82416C11.1626 7.73985 10.9632 7.67263 10.7695 7.6225C10.5781 7.57237 10.3822 7.5473 10.1816 7.5473C10.0085 7.5473 9.86149 7.57351 9.74072 7.62592C9.61995 7.67832 9.52767 7.75238 9.46387 7.84808C9.40234 7.94151 9.37158 8.05316 9.37158 8.18304C9.37158 8.32888 9.4069 8.45192 9.47754 8.55219C9.55046 8.65017 9.66211 8.74017 9.8125 8.8222C9.96517 8.90424 10.1611 8.99538 10.4004 9.09564C10.6761 9.20957 10.9097 9.3292 11.1011 9.45453C11.2948 9.57985 11.4429 9.73024 11.5454 9.9057C11.6479 10.0789 11.6992 10.2965 11.6992 10.5585Z" fill="#4C505B"/>
<path d="M5 6.92004V11.9171H7.94287V11.2198H5.82031V6.92004H5Z" fill="#4C505B"/>
<path d="M3.66113 11.92H4.59424L2.91943 9.35315L4.47461 6.92297H3.59619L2.44092 8.81653L1.27881 6.92297H0.373047L1.92139 9.32922L0.260254 11.92H1.13867L2.40332 9.87268L3.66113 11.92Z" fill="#4C505B"/>
</svg>

<!-- Generated by IcoMoon.io -->
<svg version="1.1" xmlns="http://www.w3.org/2000/svg" width="12" height="12" viewBox="0 0 12 12">
<title>xls</title>
<path d="M8.707 0h-7.707v6h1v-5h5v3h3v2h1v-3.707l-2.293-2.293zM8 1h0.293l1.707 1.707v0.293h-2v-2z"></path>
<path d="M11.699 10.558c0 0.296-0.073 0.551-0.219 0.766-0.144 0.214-0.351 0.378-0.622 0.492-0.269 0.114-0.59 0.171-0.964 0.171-0.182 0-0.357-0.010-0.523-0.031s-0.324-0.050-0.472-0.089c-0.146-0.041-0.279-0.090-0.4-0.147v-0.772c0.203 0.089 0.43 0.17 0.68 0.243 0.251 0.071 0.506 0.106 0.766 0.106 0.212 0 0.387-0.027 0.526-0.082 0.141-0.057 0.246-0.137 0.314-0.239 0.068-0.105 0.103-0.227 0.103-0.366 0-0.148-0.040-0.273-0.12-0.376s-0.2-0.196-0.362-0.28c-0.16-0.087-0.36-0.179-0.602-0.277-0.164-0.066-0.321-0.141-0.472-0.226-0.148-0.084-0.28-0.183-0.396-0.297s-0.209-0.248-0.277-0.403c-0.066-0.157-0.099-0.342-0.099-0.554 0-0.283 0.067-0.524 0.202-0.725 0.137-0.201 0.328-0.354 0.574-0.461 0.248-0.107 0.538-0.161 0.868-0.161 0.262 0 0.508 0.027 0.738 0.082 0.232 0.055 0.46 0.132 0.684 0.232l-0.26 0.66c-0.205-0.084-0.404-0.152-0.598-0.202-0.191-0.050-0.387-0.075-0.588-0.075-0.173 0-0.32 0.026-0.441 0.079s-0.213 0.126-0.277 0.222c-0.062 0.093-0.092 0.205-0.092 0.335 0 0.146 0.035 0.269 0.106 0.369 0.073 0.098 0.185 0.188 0.335 0.27 0.153 0.082 0.349 0.173 0.588 0.273 0.276 0.114 0.509 0.234 0.701 0.359 0.194 0.125 0.342 0.276 0.444 0.451 0.103 0.173 0.154 0.391 0.154 0.653z"></path>
<path d="M5 6.92v4.997h2.943v-0.697h-2.123v-4.3h-0.82z"></path>
<path d="M3.661 11.92h0.933l-1.675-2.567 1.555-2.43h-0.878l-1.155 1.894-1.162-1.894h-0.906l1.548 2.406-1.661 2.591h0.878l1.265-2.047 1.258 2.047z"></path>
</svg>
